X: 1
T:Queenie's Own -- Reel
M:2/4
L:1/16
C:SNOW.
R:reel
B:Ryan's Mammoth Collection
N:375
Z:Contributed by Ray Davies,  ray:davies99.freeserve.co.uk
K:G
vge|\
vd2v"4"ed v.B2vGA | "^SEGUE."BAGE .D2ED | B,DGA BG"4"ed |\
dBBG .A2ge |
.d2"4"ed .B2GA | BAGE .D2EF | GFGA BdAc | BG"4"AF G2:|
|:ud2|\
gBBd gBdg | fAAd fdad | gBdg bgaf | eaag fdef |
gBBd gBdg | fAAd fdad | {a}gfed "4"edBG | dBAB G2  :|
